public/media/tda-images/rob1.svg

<?xml version="1.0" encoding="UTF-8"?>
<svg xmlns="http://www.w3.org/2000/svg" xmlns:xlink="http://www.w3.org/1999/xlink" width="450pt" height="450pt" viewBox="0 0 450 450" version="1.1">
<g id="surface11">
<rect x="0" y="0" width="450" height="450" style="fill:rgb(100%,100%,100%);fill-opacity:1;stroke:none;"/>
<path style="fill-rule:nonzero;fill:rgb(100%,0%,0%);fill-opacity:1;stroke-width:0.75;stroke-linecap:round;stroke-linejoin:round;stroke:rgb(100%,0%,0%);stroke-opacity:1;stroke-miterlimit:10;" d="M 365.351562 234.671875 C 365.351562 237.070312 361.75 237.070312 361.75 234.671875 C 361.75 232.269531 365.351562 232.269531 365.351562 234.671875 "/>
<path style="fill-rule:nonzero;fill:rgb(100%,0%,0%);fill-opacity:1;stroke-width:0.75;stroke-linecap:round;stroke-linejoin:round;stroke:rgb(100%,0%,0%);stroke-opacity:1;stroke-miterlimit:10;" d="M 115.605469 141.78125 C 115.605469 144.179688 112.003906 144.179688 112.003906 141.78125 C 112.003906 139.378906 115.605469 139.378906 115.605469 141.78125 "/>
<path style="fill-rule:nonzero;fill:rgb(100%,0%,0%);fill-opacity:1;stroke-width:0.75;stroke-linecap:round;stroke-linejoin:round;stroke:rgb(100%,0%,0%);stroke-opacity:1;stroke-miterlimit:10;" d="M 330.578125 132.695312 C 330.578125 135.09375 326.976562 135.09375 326.976562 132.695312 C 326.976562 130.296875 330.578125 130.296875 330.578125 132.695312 "/>
<path style="fill-rule:nonzero;fill:rgb(100%,0%,0%);fill-opacity:1;stroke-width:0.75;stroke-linecap:round;stroke-linejoin:round;stroke:rgb(100%,0%,0%);stroke-opacity:1;stroke-miterlimit:10;" d="M 352.5625 166.0625 C 352.5625 168.460938 348.964844 168.460938 348.964844 166.0625 C 348.964844 163.664062 352.5625 163.664062 352.5625 166.0625 "/>
<path style="fill-rule:nonzero;fill:rgb(100%,0%,0%);fill-opacity:1;stroke-width:0.75;stroke-linecap:round;stroke-linejoin:round;stroke:rgb(100%,0%,0%);stroke-opacity:1;stroke-miterlimit:10;" d="M 232.253906 86.21875 C 232.253906 88.617188 228.652344 88.617188 228.652344 86.21875 C 228.652344 83.816406 232.253906 83.816406 232.253906 86.21875 "/>
<path style="fill-rule:nonzero;fill:rgb(100%,0%,0%);fill-opacity:1;stroke-width:0.75;stroke-linecap:round;stroke-linejoin:round;stroke:rgb(100%,0%,0%);stroke-opacity:1;stroke-miterlimit:10;" d="M 263.035156 359.078125 C 263.035156 361.476562 259.4375 361.476562 259.4375 359.078125 C 259.4375 356.679688 263.035156 356.679688 263.035156 359.078125 "/>
<path style="fill-rule:nonzero;fill:rgb(100%,0%,0%);fill-opacity:1;stroke-width:0.75;stroke-linecap:round;stroke-linejoin:round;stroke:rgb(100%,0%,0%);stroke-opacity:1;stroke-miterlimit:10;" d="M 152.332031 107.761719 C 152.332031 110.160156 148.734375 110.160156 148.734375 107.761719 C 148.734375 105.363281 152.332031 105.363281 152.332031 107.761719 "/>
<path style="fill-rule:nonzero;fill:rgb(100%,0%,0%);fill-opacity:1;stroke-width:0.75;stroke-linecap:round;stroke-linejoin:round;stroke:rgb(100%,0%,0%);stroke-opacity:1;stroke-miterlimit:10;" d="M 363.554688 249.253906 C 363.554688 251.65625 359.953125 251.65625 359.953125 249.253906 C 359.953125 246.855469 363.554688 246.855469 363.554688 249.253906 "/>
<path style="fill-rule:nonzero;fill:rgb(100%,0%,0%);fill-opacity:1;stroke-width:0.75;stroke-linecap:round;stroke-linejoin:round;stroke:rgb(100%,0%,0%);stroke-opacity:1;stroke-miterlimit:10;" d="M 296.855469 105.074219 C 296.855469 107.472656 293.257812 107.472656 293.257812 105.074219 C 293.257812 102.675781 296.855469 102.675781 296.855469 105.074219 "/>
<path style="fill-rule:nonzero;fill:rgb(100%,0%,0%);fill-opacity:1;stroke-width:0.75;stroke-linecap:round;stroke-linejoin:round;stroke:rgb(100%,0%,0%);stroke-opacity:1;stroke-miterlimit:10;" d="M 92.472656 189.703125 C 92.472656 192.101562 88.871094 192.101562 88.871094 189.703125 C 88.871094 187.300781 92.472656 187.300781 92.472656 189.703125 "/>
<path style="fill-rule:nonzero;fill:rgb(100%,0%,0%);fill-opacity:1;stroke-width:0.75;stroke-linecap:round;stroke-linejoin:round;stroke:rgb(100%,0%,0%);stroke-opacity:1;stroke-miterlimit:10;" d="M 292.371094 102.5625 C 292.371094 104.964844 288.769531 104.964844 288.769531 102.5625 C 288.769531 100.164062 292.371094 100.164062 292.371094 102.5625 "/>
<path style="fill-rule:nonzero;fill:rgb(100%,0%,0%);fill-opacity:1;stroke-width:0.75;stroke-linecap:round;stroke-linejoin:round;stroke:rgb(100%,0%,0%);stroke-opacity:1;stroke-miterlimit:10;" d="M 242.929688 87.050781 C 242.929688 89.449219 239.328125 89.449219 239.328125 87.050781 C 239.328125 84.652344 242.929688 84.652344 242.929688 87.050781 "/>
<path style="fill-rule:nonzero;fill:rgb(100%,0%,0%);fill-opacity:1;stroke-width:0.75;stroke-linecap:round;stroke-linejoin:round;stroke:rgb(100%,0%,0%);stroke-opacity:1;stroke-miterlimit:10;" d="M 246.640625 362.464844 C 246.640625 364.863281 243.039062 364.863281 243.039062 362.464844 C 243.039062 360.066406 246.640625 360.066406 246.640625 362.464844 "/>
<path style="fill-rule:nonzero;fill:rgb(100%,0%,0%);fill-opacity:1;stroke-width:0.75;stroke-linecap:round;stroke-linejoin:round;stroke:rgb(100%,0%,0%);stroke-opacity:1;stroke-miterlimit:10;" d="M 341.03125 145.996094 C 341.03125 148.394531 337.429688 148.394531 337.429688 145.996094 C 337.429688 143.597656 341.03125 143.597656 341.03125 145.996094 "/>
<path style="fill-rule:nonzero;fill:rgb(100%,0%,0%);fill-opacity:1;stroke-width:0.75;stroke-linecap:round;stroke-linejoin:round;stroke:rgb(100%,0%,0%);stroke-opacity:1;stroke-miterlimit:10;" d="M 93.808594 184.953125 C 93.808594 187.351562 90.210938 187.351562 90.210938 184.953125 C 90.210938 182.550781 93.808594 182.550781 93.808594 184.953125 "/>
<path style="fill-rule:nonzero;fill:rgb(100%,0%,0%);fill-opacity:1;stroke-width:0.75;stroke-linecap:round;stroke-linejoin:round;stroke:rgb(100%,0%,0%);stroke-opacity:1;stroke-miterlimit:10;" d="M 346.480469 154.523438 C 346.480469 156.925781 342.878906 156.925781 342.878906 154.523438 C 342.878906 152.125 346.480469 152.125 346.480469 154.523438 "/>
<path style="fill-rule:nonzero;fill:rgb(100%,0%,0%);fill-opacity:1;stroke-width:0.75;stroke-linecap:round;stroke-linejoin:round;stroke:rgb(100%,0%,0%);stroke-opacity:1;stroke-miterlimit:10;" d="M 97.878906 276.667969 C 97.878906 279.066406 94.28125 279.066406 94.28125 276.667969 C 94.28125 274.269531 97.878906 274.269531 97.878906 276.667969 "/>
<path style="fill-rule:nonzero;fill:rgb(100%,0%,0%);fill-opacity:1;stroke-width:0.75;stroke-linecap:round;stroke-linejoin:round;stroke:rgb(100%,0%,0%);stroke-opacity:1;stroke-miterlimit:10;" d="M 365.480469 217.40625 C 365.480469 219.808594 361.882812 219.808594 361.882812 217.40625 C 361.882812 215.007812 365.480469 215.007812 365.480469 217.40625 "/>
<path style="fill-rule:nonzero;fill:rgb(100%,0%,0%);fill-opacity:1;stroke-width:0.75;stroke-linecap:round;stroke-linejoin:round;stroke:rgb(100%,0%,0%);stroke-opacity:1;stroke-miterlimit:10;" d="M 365.132812 237.429688 C 365.132812 239.832031 361.53125 239.832031 361.53125 237.429688 C 361.53125 235.03125 365.132812 235.03125 365.132812 237.429688 "/>
<path style="fill-rule:nonzero;fill:rgb(100%,0%,0%);fill-opacity:1;stroke-width:0.75;stroke-linecap:round;stroke-linejoin:round;stroke:rgb(100%,0%,0%);stroke-opacity:1;stroke-miterlimit:10;" d="M 170.375 98.089844 C 170.375 100.488281 166.773438 100.488281 166.773438 98.089844 C 166.773438 95.691406 170.375 95.691406 170.375 98.089844 "/>
<path style="fill-rule:nonzero;fill:rgb(100%,0%,0%);fill-opacity:1;stroke-width:0.75;stroke-linecap:round;stroke-linejoin:round;stroke:rgb(100%,0%,0%);stroke-opacity:1;stroke-miterlimit:10;" d="M 137.898438 331.707031 C 137.898438 334.109375 134.300781 334.109375 134.300781 331.707031 C 134.300781 329.308594 137.898438 329.308594 137.898438 331.707031 "/>
<path style="fill-rule:nonzero;fill:rgb(100%,0%,0%);fill-opacity:1;stroke-width:0.75;stroke-linecap:round;stroke-linejoin:round;stroke:rgb(100%,0%,0%);stroke-opacity:1;stroke-miterlimit:10;" d="M 187.863281 91.679688 C 187.863281 94.082031 184.265625 94.082031 184.265625 91.679688 C 184.265625 89.28125 187.863281 89.28125 187.863281 91.679688 "/>
<path style="fill-rule:nonzero;fill:rgb(100%,0%,0%);fill-opacity:1;stroke-width:0.75;stroke-linecap:round;stroke-linejoin:round;stroke:rgb(100%,0%,0%);stroke-opacity:1;stroke-miterlimit:10;" d="M 365.660156 227.875 C 365.660156 230.277344 362.058594 230.277344 362.058594 227.875 C 362.058594 225.476562 365.660156 225.476562 365.660156 227.875 "/>
<path style="fill-rule:nonzero;fill:rgb(100%,0%,0%);fill-opacity:1;stroke-width:0.75;stroke-linecap:round;stroke-linejoin:round;stroke:rgb(100%,0%,0%);stroke-opacity:1;stroke-miterlimit:10;" d="M 342.171875 302.328125 C 342.171875 304.726562 338.570312 304.726562 338.570312 302.328125 C 338.570312 299.929688 342.171875 299.929688 342.171875 302.328125 "/>
<path style="fill-rule:nonzero;fill:rgb(100%,0%,0%);fill-opacity:1;stroke-width:0.75;stroke-linecap:round;stroke-linejoin:round;stroke:rgb(100%,0%,0%);stroke-opacity:1;stroke-miterlimit:10;" d="M 365.339844 234.820312 C 365.339844 237.21875 361.742188 237.21875 361.742188 234.820312 C 361.742188 232.417969 365.339844 232.417969 365.339844 234.820312 "/>
<path style="fill-rule:nonzero;fill:rgb(100%,0%,0%);fill-opacity:1;stroke-width:0.75;stroke-linecap:round;stroke-linejoin:round;stroke:rgb(100%,0%,0%);stroke-opacity:1;stroke-miterlimit:10;" d="M 354.042969 169.324219 C 354.042969 171.722656 350.441406 171.722656 350.441406 169.324219 C 350.441406 166.925781 354.042969 166.925781 354.042969 169.324219 "/>
<path style="fill-rule:nonzero;fill:rgb(100%,0%,0%);fill-opacity:1;stroke-width:0.75;stroke-linecap:round;stroke-linejoin:round;stroke:rgb(100%,0%,0%);stroke-opacity:1;stroke-miterlimit:10;" d="M 129.855469 324.460938 C 129.855469 326.859375 126.257812 326.859375 126.257812 324.460938 C 126.257812 322.058594 129.855469 322.058594 129.855469 324.460938 "/>
<path style="fill-rule:nonzero;fill:rgb(100%,0%,0%);fill-opacity:1;stroke-width:0.75;stroke-linecap:round;stroke-linejoin:round;stroke:rgb(100%,0%,0%);stroke-opacity:1;stroke-miterlimit:10;" d="M 88.160156 216.691406 C 88.160156 219.09375 84.558594 219.09375 84.558594 216.691406 C 84.558594 214.292969 88.160156 214.292969 88.160156 216.691406 "/>
<path style="fill-rule:nonzero;fill:rgb(100%,0%,0%);fill-opacity:1;stroke-width:0.75;stroke-linecap:round;stroke-linejoin:round;stroke:rgb(100%,0%,0%);stroke-opacity:1;stroke-miterlimit:10;" d="M 363.394531 250.148438 C 363.394531 252.546875 359.792969 252.546875 359.792969 250.148438 C 359.792969 247.746094 363.394531 247.746094 363.394531 250.148438 "/>
<path style="fill-rule:nonzero;fill:rgb(100%,0%,0%);fill-opacity:1;stroke-width:0.75;stroke-linecap:round;stroke-linejoin:round;stroke:rgb(100%,0%,0%);stroke-opacity:1;stroke-miterlimit:10;" d="M 136.785156 119.230469 C 136.785156 121.628906 133.183594 121.628906 133.183594 119.230469 C 133.183594 116.828125 136.785156 116.828125 136.785156 119.230469 "/>
<path style="fill-rule:nonzero;fill:rgb(100%,0%,0%);fill-opacity:1;stroke-width:0.75;stroke-linecap:round;stroke-linejoin:round;stroke:rgb(100%,0%,0%);stroke-opacity:1;stroke-miterlimit:10;" d="M 167.660156 350.667969 C 167.660156 353.066406 164.058594 353.066406 164.058594 350.667969 C 164.058594 348.269531 167.660156 348.269531 167.660156 350.667969 "/>
<path style="fill-rule:nonzero;fill:rgb(100%,0%,0%);fill-opacity:1;stroke-width:0.75;stroke-linecap:round;stroke-linejoin:round;stroke:rgb(100%,0%,0%);stroke-opacity:1;stroke-miterlimit:10;" d="M 214.84375 86.625 C 214.84375 89.027344 211.242188 89.027344 211.242188 86.625 C 211.242188 84.226562 214.84375 84.226562 214.84375 86.625 "/>
<path style="fill-rule:nonzero;fill:rgb(100%,0%,0%);fill-opacity:1;stroke-width:0.75;stroke-linecap:round;stroke-linejoin:round;stroke:rgb(100%,0%,0%);stroke-opacity:1;stroke-miterlimit:10;" d="M 281.386719 97.289062 C 281.386719 99.6875 277.785156 99.6875 277.785156 97.289062 C 277.785156 94.886719 281.386719 94.886719 281.386719 97.289062 "/>
<path style="fill-rule:nonzero;fill:rgb(100%,0%,0%);fill-opacity:1;stroke-width:0.75;stroke-linecap:round;stroke-linejoin:round;stroke:rgb(100%,0%,0%);stroke-opacity:1;stroke-miterlimit:10;" d="M 281.84375 97.484375 C 281.84375 99.882812 278.246094 99.882812 278.246094 97.484375 C 278.246094 95.085938 281.84375 95.085938 281.84375 97.484375 "/>
<path style="fill-rule:nonzero;fill:rgb(100%,0%,0%);fill-opacity:1;stroke-width:0.75;stroke-linecap:round;stroke-linejoin:round;stroke:rgb(100%,0%,0%);stroke-opacity:1;stroke-miterlimit:10;" d="M 125.976562 129.476562 C 125.976562 131.878906 122.375 131.878906 122.375 129.476562 C 122.375 127.078125 125.976562 127.078125 125.976562 129.476562 "/>
<path style="fill-rule:nonzero;fill:rgb(100%,0%,0%);fill-opacity:1;stroke-width:0.75;stroke-linecap:round;stroke-linejoin:round;stroke:rgb(100%,0%,0%);stroke-opacity:1;stroke-miterlimit:10;" d="M 306.320312 338.871094 C 306.320312 341.269531 302.722656 341.269531 302.722656 338.871094 C 302.722656 336.46875 306.320312 336.46875 306.320312 338.871094 "/>
<path style="fill-rule:nonzero;fill:rgb(100%,0%,0%);fill-opacity:1;stroke-width:0.75;stroke-linecap:round;stroke-linejoin:round;stroke:rgb(100%,0%,0%);stroke-opacity:1;stroke-miterlimit:10;" d="M 87.921875 223.320312 C 87.921875 225.722656 84.320312 225.722656 84.320312 223.320312 C 84.320312 220.921875 87.921875 220.921875 87.921875 223.320312 "/>
<path style="fill-rule:nonzero;fill:rgb(100%,0%,0%);fill-opacity:1;stroke-width:0.75;stroke-linecap:round;stroke-linejoin:round;stroke:rgb(100%,0%,0%);stroke-opacity:1;stroke-miterlimit:10;" d="M 261.835938 359.398438 C 261.835938 361.796875 258.234375 361.796875 258.234375 359.398438 C 258.234375 356.996094 261.835938 356.996094 261.835938 359.398438 "/>
<path style="fill-rule:nonzero;fill:rgb(100%,0%,0%);fill-opacity:1;stroke-width:0.75;stroke-linecap:round;stroke-linejoin:round;stroke:rgb(100%,0%,0%);stroke-opacity:1;stroke-miterlimit:10;" d="M 300.085938 342.980469 C 300.085938 345.378906 296.484375 345.378906 296.484375 342.980469 C 296.484375 340.582031 300.085938 340.582031 300.085938 342.980469 "/>
<path style="fill-rule:nonzero;fill:rgb(100%,0%,0%);fill-opacity:1;stroke-width:0.75;stroke-linecap:round;stroke-linejoin:round;stroke:rgb(100%,0%,0%);stroke-opacity:1;stroke-miterlimit:10;" d="M 92.972656 187.847656 C 92.972656 190.25 89.371094 190.25 89.371094 187.847656 C 89.371094 185.449219 92.972656 185.449219 92.972656 187.847656 "/>
<path style="fill-rule:nonzero;fill:rgb(100%,0%,0%);fill-opacity:1;stroke-width:0.75;stroke-linecap:round;stroke-linejoin:round;stroke:rgb(100%,0%,0%);stroke-opacity:1;stroke-miterlimit:10;" d="M 269.285156 357.230469 C 269.285156 359.632812 265.683594 359.632812 265.683594 357.230469 C 265.683594 354.832031 269.285156 354.832031 269.285156 357.230469 "/>
<path style="fill-rule:nonzero;fill:rgb(100%,0%,0%);fill-opacity:1;stroke-width:0.75;stroke-linecap:round;stroke-linejoin:round;stroke:rgb(100%,0%,0%);stroke-opacity:1;stroke-miterlimit:10;" d="M 124.402344 131.167969 C 124.402344 133.566406 120.800781 133.566406 120.800781 131.167969 C 120.800781 128.765625 124.402344 128.765625 124.402344 131.167969 "/>
<path style="fill-rule:nonzero;fill:rgb(100%,0%,0%);fill-opacity:1;stroke-width:0.75;stroke-linecap:round;stroke-linejoin:round;stroke:rgb(100%,0%,0%);stroke-opacity:1;stroke-miterlimit:10;" d="M 235.261719 363.632812 C 235.261719 366.03125 231.660156 366.03125 231.660156 363.632812 C 231.660156 361.230469 235.261719 361.230469 235.261719 363.632812 "/>
<path style="fill-rule:nonzero;fill:rgb(100%,0%,0%);fill-opacity:1;stroke-width:0.75;stroke-linecap:round;stroke-linejoin:round;stroke:rgb(100%,0%,0%);stroke-opacity:1;stroke-miterlimit:10;" d="M 98.726562 171.265625 C 98.726562 173.667969 95.125 173.667969 95.125 171.265625 C 95.125 168.867188 98.726562 168.867188 98.726562 171.265625 "/>
<path style="fill-rule:nonzero;fill:rgb(100%,0%,0%);fill-opacity:1;stroke-width:0.75;stroke-linecap:round;stroke-linejoin:round;stroke:rgb(100%,0%,0%);stroke-opacity:1;stroke-miterlimit:10;" d="M 341.289062 303.628906 C 341.289062 306.03125 337.6875 306.03125 337.6875 303.628906 C 337.6875 301.230469 341.289062 301.230469 341.289062 303.628906 "/>
<path style="fill-rule:nonzero;fill:rgb(100%,0%,0%);fill-opacity:1;stroke-width:0.75;stroke-linecap:round;stroke-linejoin:round;stroke:rgb(100%,0%,0%);stroke-opacity:1;stroke-miterlimit:10;" d="M 168.03125 99.15625 C 168.03125 101.558594 164.429688 101.558594 164.429688 99.15625 C 164.429688 96.757812 168.03125 96.757812 168.03125 99.15625 "/>
<path style="fill-rule:nonzero;fill:rgb(100%,0%,0%);fill-opacity:1;stroke-width:0.75;stroke-linecap:round;stroke-linejoin:round;stroke:rgb(100%,0%,0%);stroke-opacity:1;stroke-miterlimit:10;" d="M 347.414062 156.132812 C 347.414062 158.535156 343.8125 158.535156 343.8125 156.132812 C 343.8125 153.734375 347.414062 153.734375 347.414062 156.132812 "/>
<path style="fill-rule:nonzero;fill:rgb(100%,0%,0%);fill-opacity:1;stroke-width:0.75;stroke-linecap:round;stroke-linejoin:round;stroke:rgb(100%,0%,0%);stroke-opacity:1;stroke-miterlimit:10;" d="M 282.988281 352.015625 C 282.988281 354.414062 279.390625 354.414062 279.390625 352.015625 C 279.390625 349.613281 282.988281 349.613281 282.988281 352.015625 "/>
<path style="fill-rule:nonzero;fill:rgb(100%,0%,0%);fill-opacity:1;stroke-width:0.75;stroke-linecap:round;stroke-linejoin:round;stroke:rgb(100%,0%,0%);stroke-opacity:1;stroke-miterlimit:10;" d="M 338.375 307.707031 C 338.375 310.109375 334.777344 310.109375 334.777344 307.707031 C 334.777344 305.308594 338.375 305.308594 338.375 307.707031 "/>
<path style="fill-rule:nonzero;fill:rgb(100%,0%,0%);fill-opacity:1;stroke-width:0.75;stroke-linecap:round;stroke-linejoin:round;stroke:rgb(100%,0%,0%);stroke-opacity:1;stroke-miterlimit:10;" d="M 362.621094 254.023438 C 362.621094 256.421875 359.023438 256.421875 359.023438 254.023438 C 359.023438 251.621094 362.621094 251.621094 362.621094 254.023438 "/>
<path style="fill-rule:nonzero;fill:rgb(100%,0%,0%);fill-opacity:1;stroke-width:0.75;stroke-linecap:round;stroke-linejoin:round;stroke:rgb(100%,0%,0%);stroke-opacity:1;stroke-miterlimit:10;" d="M 250.679688 194.996094 C 250.679688 197.398438 247.078125 197.398438 247.078125 194.996094 C 247.078125 192.597656 250.679688 192.597656 250.679688 194.996094 "/>
<path style="fill:none;stroke-width:0.75;stroke-linecap:round;stroke-linejoin:round;stroke:rgb(0%,0%,0%);stroke-opacity:1;stroke-miterlimit:10;" d="M 0 450 L 450 450 L 450 0 L 0 0 L 0 450 "/>
<path style="fill-rule:nonzero;fill:rgb(0%,100%,0%);fill-opacity:1;stroke-width:0.75;stroke-linecap:round;stroke-linejoin:round;stroke:rgb(0%,100%,0%);stroke-opacity:1;stroke-miterlimit:10;" d="M 250.679688 194.996094 C 250.679688 197.398438 247.078125 197.398438 247.078125 194.996094 C 247.078125 192.597656 250.679688 192.597656 250.679688 194.996094 "/>
</g>
</svg>

<svg xmlns="http://www.w3.org/2000/svg" width="600" height="600" viewBox="0 0 450 450"><path fill="#fff" d="M0 0h450v450H0z"/><path d="M365.352 234.672c0 2.398-3.602 2.398-3.602 0 0-2.402 3.602-2.402 3.602 0M115.605 141.781c0 2.399-3.601 2.399-3.601 0 0-2.402 3.601-2.402 3.601 0M330.578 132.695c0 2.399-3.601 2.399-3.601 0 0-2.398 3.601-2.398 3.601 0M352.563 166.063c0 2.398-3.598 2.398-3.598 0 0-2.399 3.598-2.399 3.598 0M232.254 86.219c0 2.398-3.602 2.398-3.602 0 0-2.403 3.602-2.403 3.602 0M263.035 359.078c0 2.399-3.598 2.399-3.598 0 0-2.398 3.598-2.398 3.598 0M152.332 107.762c0 2.398-3.598 2.398-3.598 0 0-2.399 3.598-2.399 3.598 0M363.555 249.254c0 2.402-3.602 2.402-3.602 0 0-2.399 3.602-2.399 3.602 0M296.855 105.074c0 2.399-3.597 2.399-3.597 0 0-2.398 3.597-2.398 3.597 0M92.473 189.703c0 2.399-3.602 2.399-3.602 0 0-2.402 3.602-2.402 3.602 0M292.371 102.563c0 2.402-3.601 2.402-3.601 0 0-2.399 3.601-2.399 3.601 0M242.93 87.05c0 2.4-3.602 2.4-3.602 0 0-2.398 3.602-2.398 3.602 0M246.64 362.465c0 2.398-3.6 2.398-3.6 0 0-2.399 3.6-2.399 3.6 0M341.031 145.996c0 2.399-3.601 2.399-3.601 0 0-2.398 3.601-2.398 3.601 0M93.809 184.953c0 2.399-3.598 2.399-3.598 0 0-2.402 3.598-2.402 3.598 0M346.48 154.523c0 2.403-3.601 2.403-3.601 0 0-2.398 3.601-2.398 3.601 0M97.879 276.668c0 2.398-3.598 2.398-3.598 0s3.598-2.398 3.598 0M365.48 217.406c0 2.403-3.597 2.403-3.597 0 0-2.398 3.597-2.398 3.597 0" fill="red" stroke-width=".75" stroke-linecap="round" stroke-linejoin="round" stroke="red" stroke-miterlimit="10"/><path d="M365.133 237.43c0 2.402-3.602 2.402-3.602 0 0-2.399 3.602-2.399 3.602 0M170.375 98.09c0 2.398-3.602 2.398-3.602 0 0-2.399 3.602-2.399 3.602 0M137.898 331.707c0 2.402-3.597 2.402-3.597 0 0-2.398 3.597-2.398 3.597 0M187.863 91.68c0 2.402-3.597 2.402-3.597 0 0-2.399 3.597-2.399 3.597 0M365.66 227.875c0 2.402-3.601 2.402-3.601 0 0-2.398 3.601-2.398 3.601 0M342.172 302.328c0 2.399-3.602 2.399-3.602 0 0-2.398 3.602-2.398 3.602 0" fill="red" stroke-width=".75" stroke-linecap="round" stroke-linejoin="round" stroke="red" stroke-miterlimit="10"/><path d="M365.34 234.82c0 2.399-3.598 2.399-3.598 0 0-2.402 3.598-2.402 3.598 0M354.043 169.324c0 2.399-3.602 2.399-3.602 0 0-2.398 3.602-2.398 3.602 0M129.855 324.46c0 2.4-3.597 2.4-3.597 0 0-2.401 3.597-2.401 3.597 0M88.16 216.691c0 2.403-3.601 2.403-3.601 0 0-2.398 3.601-2.398 3.601 0M363.395 250.148c0 2.399-3.602 2.399-3.602 0 0-2.402 3.602-2.402 3.602 0M136.785 119.23c0 2.399-3.601 2.399-3.601 0 0-2.402 3.601-2.402 3.601 0M167.66 350.668c0 2.398-3.601 2.398-3.601 0s3.601-2.398 3.601 0M214.844 86.625c0 2.402-3.602 2.402-3.602 0 0-2.398 3.602-2.398 3.602 0M281.387 97.29c0 2.397-3.602 2.397-3.602 0 0-2.403 3.602-2.403 3.602 0" fill="red" stroke-width=".75" stroke-linecap="round" stroke-linejoin="round" stroke="red" stroke-miterlimit="10"/><path d="M281.844 97.484c0 2.399-3.598 2.399-3.598 0 0-2.398 3.598-2.398 3.598 0M125.977 129.477c0 2.402-3.602 2.402-3.602 0 0-2.399 3.602-2.399 3.602 0M306.32 338.871c0 2.399-3.597 2.399-3.597 0 0-2.402 3.597-2.402 3.597 0M87.922 223.32c0 2.403-3.602 2.403-3.602 0 0-2.398 3.602-2.398 3.602 0M261.836 359.398c0 2.399-3.602 2.399-3.602 0 0-2.402 3.602-2.402 3.602 0M300.086 342.98c0 2.399-3.602 2.399-3.602 0 0-2.398 3.602-2.398 3.602 0M92.973 187.848c0 2.402-3.602 2.402-3.602 0 0-2.399 3.602-2.399 3.602 0M269.285 357.23c0 2.403-3.601 2.403-3.601 0 0-2.398 3.601-2.398 3.601 0" fill="red" stroke-width=".75" stroke-linecap="round" stroke-linejoin="round" stroke="red" stroke-miterlimit="10"/><path d="M124.402 131.168c0 2.398-3.601 2.398-3.601 0 0-2.402 3.601-2.402 3.601 0M235.262 363.633c0 2.398-3.602 2.398-3.602 0 0-2.403 3.602-2.403 3.602 0M98.727 171.266c0 2.402-3.602 2.402-3.602 0 0-2.399 3.602-2.399 3.602 0M341.29 303.629c0 2.402-3.603 2.402-3.603 0 0-2.399 3.602-2.399 3.602 0M168.031 99.156c0 2.403-3.601 2.403-3.601 0 0-2.398 3.601-2.398 3.601 0M347.414 156.133c0 2.402-3.601 2.402-3.601 0 0-2.399 3.601-2.399 3.601 0M282.988 352.016c0 2.398-3.597 2.398-3.597 0 0-2.403 3.597-2.403 3.597 0M338.375 307.707c0 2.402-3.598 2.402-3.598 0 0-2.398 3.598-2.398 3.598 0M362.621 254.023c0 2.399-3.598 2.399-3.598 0 0-2.402 3.598-2.402 3.598 0M250.68 194.996c0 2.402-3.602 2.402-3.602 0 0-2.398 3.602-2.398 3.602 0" fill="red" stroke-width=".75" stroke-linecap="round" stroke-linejoin="round" stroke="red" stroke-miterlimit="10"/><path d="M0 450h450V0H0v450" fill="none" stroke-width=".75" stroke-linecap="round" stroke-linejoin="round" stroke="#000" stroke-miterlimit="10"/><path d="M250.68 194.996c0 2.402-3.602 2.402-3.602 0 0-2.398 3.602-2.398 3.602 0" fill="#0f0" stroke-width=".75" stroke-linecap="round" stroke-linejoin="round" stroke="#0f0" stroke-miterlimit="10"/></svg>
